docs/.vuepress/public/category-icon/mobile.svg

<?xml version="1.0" standalone="no"?><!DOCTYPE svg PUBLIC "-//W3C//DTD SVG 1.1//EN" "http://www.w3.org/Graphics/SVG/1.1/DTD/svg11.dtd"><svg t="1631067571866" class="icon" viewBox="0 0 1024 1024" version="1.1" xmlns="http://www.w3.org/2000/svg" p-id="6096" xmlns:xlink="http://www.w3.org/1999/xlink" width="200" height="200"><defs><style type="text/css"></style></defs><path d="M85.333333 832V149.333333c0-46.933333 38.4-85.333333 85.333334-85.333333h469.333333c46.933333 0 85.333333 38.4 85.333333 85.333333v682.666667c0 46.933333-38.4 85.333333-85.333333 85.333333H170.666667c-46.933333 0-85.333333-38.4-85.333334-85.333333z" fill="#37474F" p-id="6097"></path><path d="M640 128H170.666667c-12.8 0-21.333333 8.533333-21.333334 21.333333v618.666667c0 12.8 8.533333 21.333333 21.333334 21.333333h469.333333c12.8 0 21.333333-8.533333 21.333333-21.333333V149.333333c0-12.8-8.533333-21.333333-21.333333-21.333333z" fill="#BBDEFB" p-id="6098"></path><path d="M320 832h128v42.666667h-128z" fill="#78909C" p-id="6099"></path><path d="M512 874.666667V362.666667c0-46.933333 38.4-85.333333 85.333333-85.333334h256c46.933333 0 85.333333 38.4 85.333334 85.333334v512c0 46.933333-38.4 85.333333-85.333334 85.333333H597.333333c-46.933333 0-85.333333-38.4-85.333333-85.333333z" fill="#E38939" p-id="6100"></path><path d="M853.333333 341.333333H597.333333c-12.8 0-21.333333 8.533333-21.333333 21.333334v469.333333c0 12.8 8.533333 21.333333 21.333333 21.333333h256c12.8 0 21.333333-8.533333 21.333334-21.333333V362.666667c0-12.8-8.533333-21.333333-21.333334-21.333334z" fill="#FFF3E0" p-id="6101"></path><path d="M725.333333 906.666667m-32 0a32 32 0 1 0 64 0 32 32 0 1 0-64 0Z" fill="#A6642A" p-id="6102"></path></svg>

<svg class="icon" viewBox="0 0 1024 1024" xmlns="http://www.w3.org/2000/svg" width="200" height="200"><defs><style/></defs><path d="M85.333 832V149.333c0-46.933 38.4-85.333 85.334-85.333H640c46.933 0 85.333 38.4 85.333 85.333V832c0 46.933-38.4 85.333-85.333 85.333H170.667c-46.934 0-85.334-38.4-85.334-85.333z" fill="#37474F"/><path d="M640 128H170.667c-12.8 0-21.334 8.533-21.334 21.333V768c0 12.8 8.534 21.333 21.334 21.333H640c12.8 0 21.333-8.533 21.333-21.333V149.333c0-12.8-8.533-21.333-21.333-21.333z" fill="#BBDEFB"/><path d="M320 832h128v42.667H320z" fill="#78909C"/><path d="M512 874.667v-512c0-46.934 38.4-85.334 85.333-85.334h256c46.934 0 85.334 38.4 85.334 85.334v512c0 46.933-38.4 85.333-85.334 85.333h-256C550.4 960 512 921.6 512 874.667z" fill="#E38939"/><path d="M853.333 341.333h-256c-12.8 0-21.333 8.534-21.333 21.334V832c0 12.8 8.533 21.333 21.333 21.333h256c12.8 0 21.334-8.533 21.334-21.333V362.667c0-12.8-8.534-21.334-21.334-21.334z" fill="#FFF3E0"/><path d="M693.333 906.667a32 32 0 1064 0 32 32 0 10-64 0z" fill="#A6642A"/></svg>
